tools/download-figma-icons/icons/outlined-large/danger-electricity.svg

<svg width="64" height="64" viewBox="0 0 64 64" fill="none" xmlns="http://www.w3.org/2000/svg">
<g clip-path="url(#clip0_300_5407)">
<path d="M60.5 60.5H3.50005C2.20005 60.5 1.10005 59.8 0.500049 58.7C-0.0999512 57.6 -0.0999512 56.3 0.500049 55.2L29 6.2C29.6 5.1 30.8 4.5 32 4.5C33.3 4.5 34.4001 5.2 35 6.2L63.5 55.2C64.1001 56.3 64.1001 57.6 63.5 58.7C62.9001 59.8 61.8 60.5 60.5 60.5ZM31.6 7.7L3.10005 56.7C3.00005 56.9 3.00005 57.1 3.10005 57.2C3.20005 57.3 3.30005 57.5 3.50005 57.5H60.5C60.8 57.5 60.9001 57.3 60.9001 57.3C61 57.2 61 57 60.9001 56.8L32.4001 7.8C32.3001 7.6 32.1 7.6 32 7.6C31.9 7.6 31.7001 7.5 31.6 7.7Z" fill="black"/>
<path d="M30.1001 53.5C29.9001 53.5 29.7001 53.5 29.5001 53.4C28.5001 53.1 27.8001 52 28.0001 50.9L29.0001 43H26.4001C25.7001 43 25.0001 42.7 24.6001 42.1C24.1001 41.5 23.9001 40.7 24.0001 39.9L26.2001 26.6C26.3001 25.4 27.4001 24.5 28.6001 24.5H35.5001C36.3001 24.5 37.0001 24.9 37.5001 25.6C38.0001 26.4 38.1001 27.4 37.8001 28.2L35.8001 33.4H37.6001C38.5001 33.4 39.2001 33.9 39.7001 34.6C40.2001 35.4 40.2001 36.5 39.7001 37.3L32.0001 52.3C31.6001 53.1 30.9001 53.5 30.1001 53.5ZM29.3001 50.9C29.3001 50.9 29.3001 51 29.3001 50.9V50.9ZM27.1001 40H32.5001L31.6001 46.4L36.8001 36.4H31.5001L34.9001 27.5H29.2001L27.1001 40Z" fill="black"/>
</g>
<defs>
<clipPath id="clip0_300_5407">
<rect width="64" height="56.5" fill="white" transform="translate(0 4)"/>
</clipPath>
</defs>
</svg>

<svg width="64" height="64" viewBox="0 0 64 64" fill="none" xmlns="http://www.w3.org/2000/svg"><g clip-path="url(#a)" fill="currentColor"><path d="M60.5 60.5h-57c-1.3 0-2.4-.7-3-1.8-.6-1.1-.6-2.4 0-3.5L29 6.2c.6-1.1 1.8-1.7 3-1.7 1.3 0 2.4.7 3 1.7l28.5 49c.6 1.1.6 2.4 0 3.5s-1.7 1.8-3 1.8ZM31.6 7.7l-28.5 49c-.1.2-.1.4 0 .5.1.1.2.3.4.3h57c.3 0 .4-.2.4-.2.1-.1.1-.3 0-.5l-28.5-49c-.1-.2-.3-.2-.4-.2-.1 0-.3-.1-.4.1Z"/><path d="M30.1 53.5c-.2 0-.4 0-.6-.1-1-.3-1.7-1.4-1.5-2.5l1-7.9h-2.6c-.7 0-1.4-.3-1.8-.9-.5-.6-.7-1.4-.6-2.2l2.2-13.3c.1-1.2 1.2-2.1 2.4-2.1h6.9c.8 0 1.5.4 2 1.1.5.8.6 1.8.3 2.6l-2 5.2h1.8c.9 0 1.6.5 2.1 1.2.5.8.5 1.9 0 2.7l-7.7 15c-.4.8-1.1 1.2-1.9 1.2Zm-.8-2.6s0 .1 0 0ZM27.1 40h5.4l-.9 6.4 5.2-10h-5.3l3.4-8.9h-5.7L27.1 40Z"/></g><defs><clipPath id="a"><path fill="currentColor" transform="translate(0 4)" d="M0 0h64v56.5H0z"/></clipPath></defs></svg>
